src/assets/email.svg

<?xml version="1.0" encoding="UTF-8"?>
<svg width="current" height="100%" version="1.1" viewBox="0 0 53.686 36.447" xmlns="http://www.w3.org/2000/svg">
	<g transform="translate(-61.223 -119.12)">
		<g transform="matrix(.71302 0 0 .71302 61.223 110.5)">
			<path d="m66.097 12.089h-56.9c-5.071 0-9.197 4.126-9.197 9.197v32.722c0 5.071 4.126 9.197 9.197 9.197h56.9c5.071 0 9.197-4.126 9.197-9.197v-32.721c1e-3 -5.072-4.125-9.198-9.197-9.198zm-4.494 6-23.956 15.434-23.956-15.434zm4.494 39.117h-56.9c-1.763 0-3.197-1.435-3.197-3.197v-32.552l29.796 19.16c0.04 0.025 0.083 0.042 0.124 0.065 0.043 0.024 0.087 0.047 0.131 0.069 0.231 0.119 0.469 0.215 0.712 0.278 0.025 7e-3 0.05 0.01 0.075 0.016 0.267 0.063 0.537 0.102 0.807 0.102h2e-3 4e-3c0.27 0 0.54-0.038 0.807-0.102 0.025-6e-3 0.05-9e-3 0.075-0.016 0.243-0.063 0.48-0.159 0.712-0.278 0.044-0.022 0.088-0.045 0.131-0.069 0.041-0.023 0.084-0.04 0.124-0.065l29.796-19.16v32.551c-1e-3 1.763-1.436 3.198-3.199 3.198z" fill="current"/>
		</g>
	</g>
</svg>

<?xml version="1.0" encoding="iso-8859-1"?>
<!-- Generator: Adobe Illustrator 19.0.0, SVG Export Plug-In . SVG Version: 6.00 Build 0)  -->
<svg version="1.1" id="Capa_1" xmlns="http://www.w3.org/2000/svg" xmlns:xlink="http://www.w3.org/1999/xlink" x="0px" y="0px"
	 viewBox="0 0 75.294 75.294" style="enable-background:new 0 0 75.294 75.294;" xml:space="preserve">
<g>
	<path fill="current" d="M66.097,12.089h-56.9C4.126,12.089,0,16.215,0,21.286v32.722c0,5.071,4.126,9.197,9.197,9.197h56.9
		c5.071,0,9.197-4.126,9.197-9.197V21.287C75.295,16.215,71.169,12.089,66.097,12.089z M61.603,18.089L37.647,33.523L13.691,18.089
		H61.603z M66.097,57.206h-56.9C7.434,57.206,6,55.771,6,54.009V21.457l29.796,19.16c0.04,0.025,0.083,0.042,0.124,0.065
		c0.043,0.024,0.087,0.047,0.131,0.069c0.231,0.119,0.469,0.215,0.712,0.278c0.025,0.007,0.05,0.01,0.075,0.016
		c0.267,0.063,0.537,0.102,0.807,0.102c0.001,0,0.002,0,0.002,0c0.002,0,0.003,0,0.004,0c0.27,0,0.54-0.038,0.807-0.102
		c0.025-0.006,0.05-0.009,0.075-0.016c0.243-0.063,0.48-0.159,0.712-0.278c0.044-0.022,0.088-0.045,0.131-0.069
		c0.041-0.023,0.084-0.04,0.124-0.065l29.796-19.16v32.551C69.295,55.771,67.86,57.206,66.097,57.206z"/>
</g>
<g>
</g>
<g>
</g>
<g>
</g>
<g>
</g>
<g>
</g>
<g>
</g>
<g>
</g>
<g>
</g>
<g>
</g>
<g>
</g>
<g>
</g>
<g>
</g>
<g>
</g>
<g>
</g>
<g>
</g>
</svg>
